X:1
T:Wohlfahrt Violin Studies - #1
T:Wohlfahrt Foundation Studies - No. 1
T:Op 45 No 1
C:Franz Wohlfahrt
%%score 1 { 2 | 3 }
L:1/8
Q:1/4=110
M:4/4
K:C
V:1 treble nm="Violin"
V:2 treble nm="Piano"
V:3 bass 
V:1
"C""^Allegro Moderato."!f!"^Under Construction August 3, 2018" c B c B c d e d | c B c B c G E G | %2
 c B c B c d e d | c B c B c G E G |"C" c B c B c d e f |"G" g a b a g f e d |"C" c B c B c B A G | %7
"G" F E D C B, G, A, B, |"C" C B, C B, C B, C B, | C E G c e c G E | C B, C B, C B, C B, | %11
 C E G c e c G E |"Dm" F G A G F G A G | F G A G F E D C |"G" B, A, G, A, B, C D E | %15
 F E D E F G A B |"C" c B c d e f g a |"G" b a g a b a g a | b a g a g f d B | G B d f g f d B | %20
"C" c B c B c d e d | c B c B c G E G | c B c B c d e d | c B c B c G E G | c d e d c d e d | %25
 c e c G E c G E | C B, C B, C G, A, B, | C6 z2 |] %28
V:2
"C"!f!!f! cBcB cded | cBcB cGEG | cBcB cded | cBcB cGEG |"C" cBcB cdef |"G" gaba gfed | %6
"C" cBcB cBAG |"G" FEDC B,G,A,B, |"C" CB,CB, CB,CB, | CEGc ecGE | CB,CB, CB,CB, | CEGc ecGE | %12
"Dm" FGAG FGAG | FGAG FEDC |"G" B,A,G,A, B,CDE | FEDE FGAB |"C" cBcd efga |"G" baga baga | %18
 baga gfdB | GBdf gfdB |"C" cBcB cded | cBcB cGEG | cBcB cded | cBcB cGEG | cded cded | cecG EcGE | %26
 CB,CB, CG,A,B, | C6 z2 |] %28
V:3
 C,2 [E,G,]2 G,,2 [E,G,]2 | C,2 [E,G,]2 G,,2 [E,G,]2 | C,2 [E,G,]2 G,,2 [E,G,]2 | %3
 C,2 [E,G,]2 G,,2 [E,G,]2 | C,2 [E,G,]2 G,,2 [E,G,]2 | G,,2 [D,G,B,]2 B,,2 [D,G,B,]2 | %6
 C,2 [E,G,]2 G,,2 [E,G,]2 | G,,2 [D,G,B,]2 B,,2 [D,G,B,]2 | C,2 [E,G,]2 G,,2 [E,G,]2 | %9
 C,2 [E,G,]2 G,,2 [E,G,]2 | C,2 [E,G,]2 G,,2 [E,G,]2 | C,2 [E,G,]2 G,,2 [E,G,]2 | %12
 F,,2 [C,F,A,]2 A,,2 [C,F,A,]2 | F,,2 [C,F,A,]2 A,,2 [C,F,A,]2 | G,,2 [D,G,B,]2 B,,2 [D,G,B,]2 | %15
 G,,2 [D,G,B,]2 B,,2 [D,G,B,]2 | C,2 [E,G,]2 G,,2 [E,G,]2 | G,,2 [D,G,B,]2 B,,2 [D,G,B,]2 | %18
 G,,2 [D,G,B,]2 B,,2 [D,G,B,]2 | G,,2 [D,G,B,]2 B,,2 [D,G,B,]2 | C,2 [E,G,]2 G,,2 [E,G,]2 | %21
 C,2 [E,G,]2 G,,2 [E,G,]2 | C,2 [E,G,]2 G,,2 [E,G,]2 | C,2 [E,G,]2 G,,2 [E,G,]2 | [CEG]4 [CEG]4 | %25
 [G,CE]4 [E,G,C]4 | [C,E,G,]4 [C,E,G,]4 | [C,E,G,]4 z4 |] %28

